pages/zim/img/footer/logo-footer.svg

<svg width="82" height="46" viewBox="0 0 82 46" fill="none" xmlns="http://www.w3.org/2000/svg">
<path d="M7.1881 42.093H8.20002V44.9639C7.81619 45.2715 7.39746 45.5108 6.90895 45.6475C6.42044 45.8184 5.89704 45.8867 5.37364 45.8867C4.60598 45.8867 3.943 45.7158 3.31491 45.4082C2.72172 45.1006 2.23321 44.6222 1.88427 44.0753C1.53534 43.4943 1.36087 42.8791 1.36087 42.1614C1.36087 41.4437 1.53534 40.7943 1.88427 40.2474C2.23321 39.6664 2.72172 39.2221 3.31491 38.9145C3.9081 38.6069 4.60598 38.436 5.37364 38.436C5.96683 38.436 6.52512 38.5386 7.01363 38.7095C7.50214 38.9145 7.92087 39.1879 8.26981 39.5639L7.60682 40.2133C7.01363 39.6322 6.28087 39.3588 5.44342 39.3588C4.88512 39.3588 4.36172 39.4955 3.9081 39.7348C3.45449 39.974 3.10555 40.3158 2.8613 40.7259C2.61704 41.1702 2.47746 41.6487 2.47746 42.1614C2.47746 42.7082 2.61704 43.1867 2.8613 43.5968C3.10555 44.0411 3.48938 44.3487 3.9081 44.6222C4.36172 44.8614 4.88512 44.9981 5.44342 44.9981C6.1064 44.9981 6.69959 44.8272 7.1881 44.5196V42.093Z" fill="white"/>
<path d="M24.0417 45.7842L22.4366 43.5285C22.2273 43.5285 22.0877 43.5626 21.983 43.5626H20.1336V45.7842H19.0519V38.436H21.983C22.96 38.436 23.7277 38.6753 24.286 39.1196C24.8443 39.5639 25.1234 40.2133 25.1234 40.9993C25.1234 41.5804 24.9838 42.0588 24.7047 42.4348C24.4256 42.8449 24.0068 43.1183 23.4834 43.2892L25.263 45.75H24.0417V45.7842ZM23.4834 42.2297C23.8324 41.9563 24.0068 41.5462 24.0068 40.9993C24.0068 40.4525 23.8324 40.0766 23.4834 39.769C23.1345 39.4955 22.6111 39.3588 21.9481 39.3588H20.1336V42.674H21.9481C22.6111 42.674 23.1345 42.5373 23.4834 42.2297Z" fill="white"/>
<path d="M54.12 45.0309C53.5617 44.4842 53.2826 43.664 53.2826 42.6388V38.4697H54.3643V42.6047C54.3643 44.1766 55.0621 44.9626 56.4579 44.9626C57.1557 44.9626 57.6791 44.7575 58.0281 44.3816C58.377 44.0057 58.5864 43.3906 58.5864 42.6047V38.4697H59.6332V42.6388C59.6332 43.6982 59.354 44.4842 58.7957 45.0651C58.2374 45.6119 57.4698 45.8853 56.4579 45.8853C55.446 45.8853 54.6434 45.6119 54.12 45.0309Z" fill="white"/>
<path d="M75.754 39.1532C76.3123 39.5974 76.5915 40.2467 76.5915 41.0327C76.5915 41.8187 76.3123 42.468 75.754 42.9122C75.1958 43.3564 74.4281 43.5957 73.4511 43.5957H71.6017V45.8169H70.52V38.4697H73.4511C74.463 38.4697 75.1958 38.6748 75.754 39.1532ZM74.9864 42.2287C75.3353 41.9554 75.5098 41.5453 75.5098 40.9985C75.5098 40.4518 75.3353 40.0759 74.9864 39.7683C74.6375 39.4949 74.1141 39.3582 73.4511 39.3582H71.6366V42.6388H73.4511C74.1141 42.673 74.6375 42.5363 74.9864 42.2287Z" fill="white"/>
<path d="M12.457 18.6149L9.52596 21.8958H24.9141V28.1499H0V23.7071L1.64 21.8958L8.51405 14.1721L15.3532 6.48263H0V0.194336H24.9141V4.63715L23.2741 6.48263L16.4 14.1721L12.457 18.6149Z" fill="white"/>
<path d="M82 0.194336V28.1499H75.6145V10.8913L67.7285 18.6149L63.1924 14.1721L59.8775 10.8913V28.1499H53.457V0.194336H57.9932L59.8775 2.03981L67.7285 9.76348L75.6145 2.03981L77.4987 0.194336H82Z" fill="white"/>
<path d="M42.3608 0.194336H35.9753V28.1499H42.3608V0.194336Z" fill="white"/>
<path d="M36.9872 45.4083C36.394 45.1007 35.9404 44.6223 35.6264 44.0755C35.2775 43.4946 35.1379 42.8453 35.1379 42.1277C35.1379 41.4101 35.3123 40.7608 35.6264 40.1798C35.9753 39.5989 36.4289 39.1546 36.9872 38.8471C37.5804 38.5395 38.2434 38.3687 38.9413 38.3687C39.674 38.3687 40.337 38.5395 40.8953 38.8471C41.4885 39.1546 41.9421 39.5989 42.2561 40.1798C42.5702 40.7608 42.7447 41.4101 42.7447 42.1277C42.7447 42.8453 42.5702 43.4946 42.2561 44.0755C41.9421 44.6565 41.4536 45.1007 40.8953 45.4083C40.3021 45.7159 39.6391 45.8867 38.9413 45.8867C38.2085 45.8867 37.5455 45.75 36.9872 45.4083Z" fill="#12B259"/>
</svg>

<svg width="82" height="46" fill="none" xmlns="http://www.w3.org/2000/svg"><path d="M7.188 42.093H8.2v2.87a3.594 3.594 0 01-1.291.684 4.651 4.651 0 01-1.535.24 4.558 4.558 0 01-2.06-.479 3.795 3.795 0 01-1.43-1.333 3.59 3.59 0 01-.523-1.914c0-.717.174-1.367.523-1.914a3.546 3.546 0 011.43-1.333 4.45 4.45 0 012.06-.478c.593 0 1.151.103 1.64.273a3.54 3.54 0 011.256.855l-.663.65c-.593-.582-1.326-.855-2.164-.855-.558 0-1.081.136-1.535.376-.454.239-.802.58-1.047.99a2.95 2.95 0 00-.384 1.436c0 .547.14 1.026.384 1.436.245.444.628.752 1.047 1.025.454.24.977.376 1.535.376.663 0 1.257-.17 1.745-.478v-2.427zm16.854 3.691l-1.605-2.255c-.21 0-.35.034-.454.034h-1.85v2.221h-1.081v-7.348h2.931c.977 0 1.745.24 2.303.684.558.444.837 1.093.837 1.88 0 .58-.14 1.059-.418 1.435-.28.41-.698.683-1.222.854l1.78 2.461h-1.221v.034zm-.559-3.554c.35-.274.524-.684.524-1.23 0-.547-.175-.923-.524-1.231-.349-.273-.872-.41-1.535-.41h-1.814v3.315h1.814c.663 0 1.186-.137 1.535-.444zm30.637 2.8c-.558-.546-.837-1.366-.837-2.391v-4.17h1.081v4.136c0 1.572.698 2.358 2.094 2.358.698 0 1.221-.206 1.57-.581.349-.376.558-.991.558-1.777V38.47h1.047v4.169c0 1.06-.279 1.845-.837 2.426-.559.547-1.326.82-2.338.82s-1.815-.273-2.338-.854zm21.634-5.877c.558.444.837 1.094.837 1.88 0 .786-.279 1.435-.837 1.88-.558.443-1.326.683-2.303.683h-1.85v2.22H70.52V38.47h2.931c1.012 0 1.745.205 2.303.683zm-.768 3.076c.35-.274.524-.684.524-1.23 0-.547-.175-.923-.524-1.23-.349-.274-.872-.41-1.535-.41h-1.814v3.28h1.814c.663.034 1.187-.103 1.535-.41zM12.457 18.615l-2.931 3.28h15.388v6.255H0v-4.443l1.64-1.811 6.874-7.724 6.84-7.69H0V.195h24.914v4.443l-1.64 1.846-6.874 7.69-3.943 4.442zM82 .194V28.15h-6.385V10.89l-7.886 7.724-4.537-4.443-3.315-3.28V28.15h-6.42V.194h4.536l1.884 1.846 7.851 7.723 7.887-7.723L77.499.194H82zm-39.64 0h-6.385V28.15h6.386V.194z" fill="#fff"/><path d="M36.987 45.408a3.37 3.37 0 01-1.36-1.333c-.35-.58-.49-1.23-.49-1.947 0-.718.175-1.367.49-1.948a3.6 3.6 0 011.36-1.333 4.228 4.228 0 011.954-.478c.733 0 1.396.17 1.954.478a3.169 3.169 0 011.361 1.333 4.04 4.04 0 01.489 1.948 4.04 4.04 0 01-.489 1.947c-.314.581-.802 1.026-1.36 1.333a4.228 4.228 0 01-1.955.479c-.733 0-1.396-.137-1.954-.479z" fill="#12B259"/></svg>
